assets/images/clients/CITYMETRIA.svg

<svg width="300" height="120" viewBox="0 0 300 120" fill="none" xmlns="http://www.w3.org/2000/svg">
<g clip-path="url(#clip0_3300_14484)">
<path d="M87.2287 66.6037C85.7633 65.2822 85 63.5611 85 61.4406C85 59.3507 85.7327 57.6297 87.1982 56.3082C88.6637 54.9867 90.5261 54.3105 92.7548 54.3105C94.0982 54.3105 95.2583 54.5564 96.2048 55.0482V59.0127C95.1057 58.398 93.976 58.1214 92.8769 58.1214C91.8389 58.1214 90.984 58.4288 90.3124 59.0741C89.6407 59.6888 89.3048 60.4879 89.3048 61.4406C89.3048 62.424 89.6407 63.2231 90.3429 63.8377C91.0451 64.4524 91.9305 64.7597 93.0296 64.7597C94.3729 64.7597 95.4721 64.4217 96.388 63.7763V67.8023C95.4415 68.294 94.2508 68.5399 92.7853 68.5399C90.5871 68.6013 88.6942 67.9252 87.2287 66.6037Z" fill="#949494"/>
<path d="M98.3105 68.326V54.6191H102.493V68.326H98.3105Z" fill="#949494"/>
<path d="M103.988 54.6191H115.956V58.2456H112.048V68.326H107.866V58.2456H103.988V54.6191Z" fill="#949494"/>
<path d="M121.149 68.326V62.3331L116.203 54.6191H120.935L123.317 58.4915L125.729 54.6191H130.339L125.362 62.2409V68.326H121.149Z" fill="#949494"/>
<path d="M131.164 68.326V54.6191H135.316L138.278 59.5057L141.27 54.6191H145.391V68.326H141.392V60.6428L139.468 63.9005H137.209L135.194 60.6428V68.326H131.164Z" fill="#949494"/>
<path d="M147.467 68.326V54.6191H158.153V58.2456H151.649V59.475H156.748V62.7941H151.649V64.6995H158.244V68.326H147.467Z" fill="#949494"/>
<path d="M159.219 54.6191H171.187V58.2456H167.279V68.326H163.096V58.2456H159.219V54.6191Z" fill="#949494"/>
<path d="M185.904 68.326H181.019L177.386 63.4395H176.806V68.326H172.623V54.6191H179.187C180.714 54.6191 181.965 55.0187 182.912 55.8792C183.858 56.709 184.316 57.7539 184.316 59.0447C184.316 60.7657 183.37 62.2102 181.813 62.9785L185.904 68.326ZM178.729 60.3355C179.492 60.3355 180.042 59.9052 180.042 59.2291C180.042 58.553 179.523 58.1227 178.729 58.1227H176.836V60.3355H178.729Z" fill="#949494"/>
<path d="M186.818 68.326V54.6191H191.001V68.326H186.818Z" fill="#949494"/>
<path d="M192.104 68.3264L197.691 54.5273H201.69L207.308 68.3264H202.82L201.843 65.7756H197.416L196.439 68.3264H192.104ZM198.637 62.6101H200.652L199.675 59.3524L198.637 62.6101Z" fill="#949494"/>
<path d="M211.884 57.7226C213.604 57.7226 214.998 56.3191 214.998 54.5879C214.998 52.8566 213.604 51.4531 211.884 51.4531C210.164 51.4531 208.77 52.8566 208.77 54.5879C208.77 56.3191 210.164 57.7226 211.884 57.7226Z" fill="#949494"/>
</g>
<defs>
<clipPath id="clip0_3300_14484">
<rect width="130" height="17.0926" fill="white" transform="translate(85 51.4531)"/>
</clipPath>
</defs>
</svg>

<svg width="300" height="120" viewBox="0 0 300 120" fill="none" xmlns="http://www.w3.org/2000/svg"><g clip-path="url(#a)" fill="#949494"><path d="M87.229 66.604C85.763 65.282 85 63.56 85 61.44c0-2.09.733-3.811 2.198-5.133 1.466-1.321 3.328-1.998 5.557-1.998 1.343 0 2.503.246 3.45.738v3.965c-1.1-.615-2.229-.892-3.328-.892-1.038 0-1.893.308-2.565.953-.671.615-1.007 1.414-1.007 2.367 0 .983.336 1.782 1.038 2.397.702.614 1.587.922 2.687.922 1.343 0 2.442-.338 3.358-.984v4.026c-.947.492-2.137.738-3.603.738-2.198.061-4.09-.615-5.556-1.936Zm11.081 1.722V54.619h4.183v13.707h-4.182Zm5.678-13.706h11.968v3.626h-3.908v10.08h-4.182v-10.08h-3.878v-3.627Zm17.161 13.706v-5.993l-4.946-7.714h4.732l2.382 3.873 2.412-3.873h4.61l-4.977 7.622v6.085h-4.213Zm10.015 0V54.619h4.152l2.962 4.887 2.992-4.887h4.121v13.707h-3.999v-7.683l-1.924 3.258h-2.259l-2.015-3.258v7.683h-4.03Zm16.303 0V54.619h10.686v3.627h-6.504v1.229h5.099v3.32h-5.099v1.904h6.595v3.627h-10.777Zm11.752-13.706h11.968v3.626h-3.908v10.08h-4.183v-10.08h-3.877v-3.627Zm26.685 13.706h-4.885l-3.633-4.886h-.58v4.886h-4.183V54.619h6.564c1.527 0 2.778.4 3.725 1.26.946.83 1.404 1.875 1.404 3.166 0 1.72-.946 3.165-2.503 3.933l4.091 5.348Zm-7.175-7.99c.763 0 1.313-.43 1.313-1.107 0-.676-.519-1.106-1.313-1.106h-1.893v2.213h1.893Zm8.089 7.99V54.619h4.183v13.707h-4.183Zm5.286 0 5.587-13.799h3.999l5.618 13.8h-4.488l-.977-2.551h-4.427l-.977 2.55h-4.335Zm6.533-5.716h2.015l-.977-3.258-1.038 3.258Zm13.247-4.887c1.72 0 3.114-1.404 3.114-3.135 0-1.731-1.394-3.135-3.114-3.135s-3.114 1.404-3.114 3.135c0 1.731 1.394 3.135 3.114 3.135Z"/></g><defs><clipPath id="a"><path fill="#fff" transform="translate(85 51.453)" d="M0 0h130v17.093H0z"/></clipPath></defs></svg>
